X:230
T:Mulberry Garden,The (p)1679.PLFD.230
T:Ladies Delight,The (p)1679.PLFD.230
M:6/4
L:1/4
Q:3/4=110
S:Playford, Dancing Master,6th Ed.,1679
O:England
H:1679.
Z:Chris Partington.
K:F
G |\
c2 d cAF | a3g>fe | defc>AB | G3-G2 :| 
|: g |\
g2agec | f3-f>cA | Bcd cdB | b3- b2g/f/ | 
ecf e2f | cAB G2c/B/ | AGA G2F | F3-F2 :| 
